X:1
T:Title
%%score { ( 1 3 ) | 2 }
L:1/8
M:4/4
K:G
V:1 treble nm="Grand Piano"
V:3 treble 
V:2 bass 
V:1
 z4 z2[Q:1/4=116] D2 | G3 A G2 E2 | D2 G4 B2 | [GB]2 [FA]4 [Fc]2 |[M:3/4] B2 G4 |[M:1/4] D2 | %6
[M:4/4] G3 A G2 E2 | D2 G4 B2 | [DFA]2 [B,G]2 [DGB]3 [CFA] |[M:3/4] [B,G]6 |[M:1/4] [B,D]2 | %11
[M:4/4] [DG]6 z2 | d2 d2 d2 B2 | [FA]6 z2 |[M:3/4] [DGB]2 [DGB]2 [DGB]2 |[M:1/4] [CDA]2 | %16
[M:4/4] [DG]6 z2 | d2 d2 d2 [EGc]2 | [DGB]3 [EGc] [DGB]2 [CFA]2 |[M:3/4] [B,G]6 |] %20
V:2
 z4 z2 [G,B,]2 | [G,B,D]3 [G,CD] [G,B,D]2 [G,C]2 | [G,B,]2[K:treble] [G,B,D]4 [G,DG]2 | %3
 [D,D]2 [D,D]4 [D,D]2 |[M:3/4][K:treble] [G,DG]2 [G,B,D]4 |[M:1/4] [G,B,]2 | %6
[M:4/4] [G,B,D]3 [G,CD] [G,B,D]2 [G,C]2 | [G,B,]2 [G,B,D]4 [G,DG]2 | D,2 D,2 D,3 D, |[M:3/4] G,6 | %10
[M:1/4] G,2 |[M:4/4] G,2 G,2 G,2[K:treble] [G,DG][G,DA] | [G,B,G]2 [A,CF]2 [B,DG]2 [G,DG]2 | %13
 [D,D]2 D,2 D,2 E,D, |[M:3/4] G,2 D,2 G,,2 |[M:1/4] D,2 | %16
[M:4/4] G,2 G,2 G,2[K:treble] [G,DG][G,DA] | [G,B,G]2 [A,CF]2 [B,DG]2[K:bass] C,2 | %18
 D,3 D, D,2 D,2 |[M:3/4] G,6 |] %20
V:3
 x8 | x8 | x8 | x8 |[M:3/4] x6 |[M:1/4] x2 |[M:4/4] x8 | x8 | x8 |[M:3/4] x6 |[M:1/4] x2 | %11
[M:4/4] B,2 B,2 B,2 Bc | x8 | z2 D2 D2 [B,G][DFA] |[M:3/4] x6 |[M:1/4] x2 |[M:4/4] B,2 B,2 B,2 Bc | %17
 x8 | x8 |[M:3/4] x6 |] %20

